src/img/telegram-logo.svg

<?xml version="1.0" encoding="utf-8"?><!-- Uploaded to: SVG Repo, www.svgrepo.com, Generator: SVG Repo Mixer Tools -->
<svg fill="#000000" width="800px" height="800px" viewBox="0 0 256 256" id="Flat" xmlns="http://www.w3.org/2000/svg">
  <path d="M228.646,34.7676a11.96514,11.96514,0,0,0-12.21778-2.0752L31.87109,105.19729a11.99915,11.99915,0,0,0,2.03467,22.93457L84,138.15139v61.833a11.8137,11.8137,0,0,0,7.40771,11.08593,12.17148,12.17148,0,0,0,4.66846.94434,11.83219,11.83219,0,0,0,8.40918-3.5459l28.59619-28.59619L175.2749,217.003a11.89844,11.89844,0,0,0,7.88819,3.00195,12.112,12.112,0,0,0,3.72265-.59082,11.89762,11.89762,0,0,0,8.01319-8.73925L232.5127,46.542A11.97177,11.97177,0,0,0,228.646,34.7676ZM32.2749,116.71877a3.86572,3.86572,0,0,1,2.522-4.07617L203.97217,46.18044,87.07227,130.60769,35.47461,120.28811A3.86618,3.86618,0,0,1,32.2749,116.71877Zm66.55322,86.09375A3.99976,3.99976,0,0,1,92,199.9844V143.72048l35.064,30.85669ZM224.71484,44.7549,187.10107,208.88772a4.0003,4.0003,0,0,1-6.5415,2.10937l-86.1543-75.8164,129.66309-93.645A3.80732,3.80732,0,0,1,224.71484,44.7549Z"/>
</svg>

<svg xmlns="http://www.w3.org/2000/svg" width="800" height="800" viewBox="0 0 256 256"><path d="M228.646 34.768a11.965 11.965 0 0 0-12.218-2.076L31.871 105.197a12 12 0 0 0 2.035 22.935L84 138.152v61.832a11.814 11.814 0 0 0 7.408 11.086 12.171 12.171 0 0 0 4.668.945 11.832 11.832 0 0 0 8.41-3.546l28.596-28.596 42.193 37.13a11.898 11.898 0 0 0 7.888 3.002 12.112 12.112 0 0 0 3.723-.59 11.898 11.898 0 0 0 8.013-8.74l37.614-164.133a11.972 11.972 0 0 0-3.867-11.774Zm-196.371 81.95a3.866 3.866 0 0 1 2.522-4.075L203.972 46.18l-116.9 84.428-51.597-10.32a3.866 3.866 0 0 1-3.2-3.57Zm66.553 86.095A4 4 0 0 1 92 199.984V143.72l35.064 30.857ZM224.715 44.755 187.1 208.888a4 4 0 0 1-6.541 2.11L94.405 135.18l129.663-93.645a3.807 3.807 0 0 1 .647 3.219Z"/></svg>
